public/assets/ui/arrow-right-circle.svg

<svg version="1.1" id="_x32_" xmlns="http://www.w3.org/2000/svg" viewBox="0 0 512 512" xml:space="preserve">
<path d="M256,0C114.614,0,0,114.613,0,256s114.614,256,256,256c141.387,0,256-114.613,256-256S397.387,0,256,0z M384.29,259.396L262.298,375.46c-11.79,11.226-30.435,10.767-41.653-1.032c-11.218-11.79-10.75-30.452,1.032-41.653l49.726-47.306H153.605c-16.282,0-29.467-13.186-29.467-29.468s13.186-29.46,29.467-29.46h117.799l-49.726-47.314c-11.782-11.193-12.25-29.863-1.032-41.644c11.218-11.798,29.863-12.267,41.653-1.032L384.29,252.605c0.928,0.887,1.452,2.113,1.452,3.395C385.742,257.282,385.218,258.508,384.29,259.396z" fill="#ff0000"/>
</svg>

<svg width="512" height="512" viewBox="0 0 512 512" fill="none" xmlns="http://www.w3.org/2000/svg">
<g clip-path="url(#clip0_1_6)">
<path d="M256 0C114.614 0 0 114.613 0 256C0 397.387 114.614 512 256 512C397.387 512 512 397.387 512 256C512 114.613 397.387 0 256 0ZM384.29 259.396L262.298 375.46C250.508 386.686 231.863 386.227 220.645 374.428C209.427 362.638 209.895 343.976 221.677 332.775L271.403 285.469H153.605C137.323 285.469 124.138 272.283 124.138 256.001C124.138 239.719 137.324 226.541 153.605 226.541H271.404L221.678 179.227C209.896 168.034 209.428 149.364 220.646 137.583C231.864 125.785 250.509 125.316 262.299 136.551L384.29 252.605C385.218 253.492 385.742 254.718 385.742 256C385.742 257.282 385.218 258.508 384.29 259.396Z" fill="#FF0000"/>
<path d="M384.29 259.396L262.298 375.46C250.508 386.686 231.863 386.227 220.645 374.428C209.427 362.638 209.895 343.976 221.677 332.775L271.403 285.469H153.605C137.323 285.469 124.138 272.283 124.138 256.001C124.138 239.719 137.324 226.541 153.605 226.541H271.404L221.678 179.227C209.896 168.034 209.428 149.364 220.646 137.583C231.864 125.785 250.509 125.316 262.299 136.551L384.29 252.605C385.218 253.492 385.742 254.718 385.742 256C385.742 257.282 385.218 258.508 384.29 259.396Z" fill="black"/>
</g>
<defs>
<clipPath id="clip0_1_6">
<rect width="512" height="512" fill="white"/>
</clipPath>
</defs>
</svg>
